src/icons/nrwl.svg

<svg viewBox="0 0 100 100" xmlns="http://www.w3.org/2000/svg">
  <path
    d="M40.434 15.644C33.3816 15.6756 26.5103 17.8797 20.7554 21.9562C15.0005 26.0327 10.6417 31.7836 8.27216 38.4261C5.90266 45.0686 5.63766 52.2798 7.51323 59.0783C9.3888 65.8768 13.3138 71.9321 18.754 76.42C18.0296 76.281 17.3314 76.0293 16.685 75.674C15.5 74.989 14.136 74.6767 12.771 74.778C11.6797 74.8512 10.6208 75.1802 9.6801 75.7382C8.73935 76.2962 7.94304 77.0676 7.3555 77.9902C6.76796 78.9128 6.40566 79.9606 6.29787 81.0491C6.19007 82.1376 6.33981 83.2361 6.73499 84.256C8.55498 83.5837 10.4635 83.1811 12.4 83.061C13.5357 82.9849 14.6757 83.005 15.808 83.121C16.7438 83.2092 17.6851 83.2226 18.623 83.161C19.117 83.126 19.607 83.073 20.093 83.001C22.1561 82.6849 24.1445 81.996 25.961 80.968C27.3835 81.6313 28.8519 82.1911 30.355 82.643C40.2581 85.4771 50.8386 84.7797 60.284 80.67C60.7136 80.4746 61.1154 80.223 61.479 79.922L93.737 82.866L62.962 76.719C62.914 75.656 61.982 74.926 61.629 74.472C61.4558 74.2728 61.3433 74.0282 61.305 73.767C61.025 69.8621 59.3612 66.1851 56.6128 63.3971C53.8643 60.609 50.2115 58.8929 46.311 58.557C45.898 57.7617 45.2791 57.0917 44.519 56.617C43.9221 56.1435 43.4403 55.5408 43.11 54.8541C42.7797 54.1675 42.6094 53.4149 42.612 52.653C41.4217 52.7614 40.2969 53.2461 39.4007 54.0369C38.5046 54.8277 37.8836 55.8835 37.628 57.051C35.6516 56.0736 33.935 54.6418 32.6187 52.8729C31.3025 51.104 30.4241 49.0484 30.0556 46.8746C29.6871 44.7007 29.8389 42.4705 30.4986 40.3666C31.1583 38.2628 32.3072 36.3452 33.851 34.771C35.5423 32.9853 37.5812 31.5645 39.8422 30.5963C42.1032 29.6281 44.5384 29.1328 46.998 29.141C51.0241 29.1316 54.9404 30.4532 58.1376 32.9001C61.3347 35.3471 63.6334 38.7822 64.676 42.671C63.3 44.352 61.3704 45.4881 59.233 45.876C57.3766 46.2021 55.6683 47.0994 54.3462 48.4428C53.0242 49.7862 52.1543 51.5086 51.858 53.37C55.372 53.37 57.71 58.152 64.236 58.152C65.4125 58.1522 66.5624 57.802 67.5391 57.146C68.5158 56.4901 69.275 55.5582 69.72 54.469C70.1667 55.5587 70.9277 56.4908 71.9058 57.1467C72.884 57.8026 74.0353 58.1525 75.213 58.152C75.4676 58.1493 75.7221 58.1383 75.976 58.119V58.133C76.056 58.128 76.128 58.115 76.206 58.109C76.358 58.096 76.5097 58.08 76.661 58.061C76.897 58.034 77.129 58.001 77.354 57.961C77.4777 57.939 77.6011 57.915 77.724 57.889C77.986 57.834 78.239 57.769 78.486 57.699C78.5867 57.6714 78.6871 57.6424 78.787 57.612C79.096 57.515 79.394 57.41 79.681 57.295C79.7234 57.2786 79.7658 57.2619 79.808 57.245L79.908 57.202C80.0492 57.1428 80.1892 57.0808 80.328 57.016V57.01C83.334 55.599 85.193 53.387 87.589 53.387C87.2952 51.5459 86.4402 49.8404 85.1408 48.5034C83.8414 47.1664 82.161 46.2631 80.329 45.917H80.323C80.2867 45.9088 80.2504 45.9008 80.214 45.893C79.5712 45.7745 78.9429 45.5875 78.34 45.335L78.279 45.31C78.0219 45.2009 77.77 45.0801 77.524 44.948L77.397 44.874C77.1886 44.7584 76.9847 44.6346 76.786 44.503L76.676 44.429C76.4461 44.2716 76.2235 44.1038 76.009 43.926C74.924 43.032 74.056 41.899 73.606 40.627C71.5674 33.4099 67.2202 27.0595 61.2297 22.5476C55.2393 18.0357 47.9355 15.6108 40.436 15.644H40.434ZM25.202 42.19C25.842 42.232 26.313 43.019 26.248 43.939C26.182 44.859 25.608 45.566 24.962 45.524C24.317 45.482 23.857 44.694 23.922 43.773C23.987 42.852 24.562 42.148 25.202 42.19ZM21.03 45.19L21.013 45.206C21.336 45.206 21.61 45.56 21.61 46.02C21.61 46.48 21.383 46.863 21.06 46.875C20.738 46.887 20.464 46.527 20.464 46.067C20.464 45.607 20.713 45.207 21.03 45.19ZM20.775 50.482C21.314 50.514 21.875 51.079 22.059 51.863C22.268 52.76 21.928 53.61 21.3 53.753C20.673 53.897 19.996 53.293 19.787 52.39C19.578 51.488 19.937 50.633 20.564 50.483L20.546 50.502C20.6212 50.484 20.6978 50.4773 20.775 50.482ZM24.845 56.907C24.925 56.9 25.007 56.9 25.091 56.907C25.653 56.952 26.283 57.294 26.768 57.877C27.545 58.809 27.629 59.998 26.978 60.537C26.326 61.074 25.183 60.751 24.407 59.819C23.63 58.886 23.564 57.697 24.197 57.159C24.3825 57.0113 24.6084 56.9234 24.845 56.907ZM42.236 74.067C42.552 74.078 42.957 74.227 43.417 74.341C44.337 74.568 45.144 74.538 44.934 75.405L44.918 75.423C44.7945 75.8466 44.5125 76.2063 44.1306 76.4274C43.7488 76.6484 43.2964 76.7137 42.8676 76.6098C42.4388 76.5059 42.0665 76.2407 41.8282 75.8694C41.5899 75.498 41.5039 75.0491 41.588 74.616C41.693 74.179 41.92 74.055 42.236 74.067Z"
    fill="#00B8D4"
  />
</svg>

<svg viewBox="0 0 100 100" xmlns="http://www.w3.org/2000/svg">
  <path
    d="M40.434 15.644a34.31 34.31 0 0 0-21.68 60.776 7.058 7.058 0 0 1-2.069-.746 6.813 6.813 0 0 0-3.914-.896 6.974 6.974 0 0 0-6.036 9.478 19.901 19.901 0 0 1 5.665-1.195 20.194 20.194 0 0 1 3.408.06 17.666 17.666 0 0 0 2.815.04c.494-.035.984-.088 1.47-.16a17.206 17.206 0 0 0 5.868-2.033 32.625 32.625 0 0 0 4.394 1.675 44.398 44.398 0 0 0 29.929-1.973 5.343 5.343 0 0 0 1.195-.748l32.258 2.944-30.775-6.147c-.048-1.063-.98-1.793-1.333-2.247a1.38 1.38 0 0 1-.324-.705 16.447 16.447 0 0 0-14.994-15.21 5.008 5.008 0 0 0-1.792-1.94 5.038 5.038 0 0 1-1.907-3.964 5.624 5.624 0 0 0-4.984 4.398 13.955 13.955 0 0 1-3.777-22.28 18.025 18.025 0 0 1 13.147-5.63 18.258 18.258 0 0 1 17.678 13.53 9.144 9.144 0 0 1-5.443 3.205 9.054 9.054 0 0 0-7.375 7.494c3.514 0 5.852 4.782 12.378 4.782a5.923 5.923 0 0 0 5.484-3.683 5.934 5.934 0 0 0 5.493 3.683 11.72 11.72 0 0 0 .763-.033v.014c.08-.005.152-.018.23-.024a11.72 11.72 0 0 0 .455-.048c.236-.027.468-.06.693-.1a11.72 11.72 0 0 0 .37-.072c.262-.055.515-.12.762-.19a11.72 11.72 0 0 0 .301-.087c.309-.097.607-.202.894-.317a11.72 11.72 0 0 0 .127-.05l.1-.043a11.72 11.72 0 0 0 .42-.186v-.006c3.006-1.411 4.865-3.623 7.261-3.623a9.054 9.054 0 0 0-7.26-7.47h-.006a9.054 9.054 0 0 0-.109-.024 9.144 9.144 0 0 1-1.874-.558l-.061-.025a9.144 9.144 0 0 1-.755-.362l-.127-.074a9.144 9.144 0 0 1-.611-.371l-.11-.074a9.144 9.144 0 0 1-.667-.503c-1.085-.894-1.953-2.027-2.403-3.299a34.31 34.31 0 0 0-33.17-24.983zM25.202 42.19c.64.042 1.111.829 1.046 1.749-.066.92-.64 1.627-1.286 1.585-.645-.042-1.105-.83-1.04-1.751s.64-1.625 1.28-1.583zm-4.172 3-.017.016c.323 0 .597.354.597.814s-.227.843-.55.855c-.322.012-.596-.348-.596-.808s.249-.86.566-.877zm-.255 5.292c.539.032 1.1.597 1.284 1.381.209.897-.131 1.747-.759 1.89-.627.144-1.304-.46-1.513-1.363-.209-.902.15-1.757.777-1.907l-.018.019a.783.783 0 0 1 .23-.02zm4.07 6.425c.08-.007.162-.007.246 0 .562.045 1.192.387 1.677.97.777.932.861 2.121.21 2.66-.652.537-1.795.214-2.571-.718-.777-.933-.843-2.122-.21-2.66a1.17 1.17 0 0 1 .648-.252zm17.391 17.16c.316.011.721.16 1.181.274.92.227 1.727.197 1.517 1.064l-.016.018a1.715 1.715 0 0 1-3.33-.807c.105-.437.332-.562.648-.55z"
    style="fill: #00b8d4; stroke-width: 0.59763"
  />
</svg>
